X:137
T:Waltz. CJF.137
R:Waltz
S:C.J.Fox MS, 1829/33, Beverley,E.Yorks.
N:The key signature is given as an e-flat followed by a
N:B-flat in the MS. The note marked with a letter “c” is
N:also marked thus in the MS. – PJH
B:Kidson Coll.Mitchell Lib.M1805
O:England
A:East Yorkshire
Z:vmp.P J Headford 2000 & 2008
M:3/8
L:1/16
Q:1/8=120
K:Bb
F2|B2BABA|B2d2f2|f2^f2a2|c4(cd)|\
edgfed|cdedcB|A>gf>ed>c|{c2}B4:|!
|:dB|AcecAc|BABcde|fgabag|{g2}f4(gf)|\
ede” c “cdc|e>gf>ed>c|BdfecA|{c2}B4:|

